app/images/icons/integrations-icon.svg

<?xml version="1.0" encoding="UTF-8" standalone="no"?>
<svg width="77px" height="63px" viewBox="0 0 77 63" version="1.1" xmlns="http://www.w3.org/2000/svg" xmlns:xlink="http://www.w3.org/1999/xlink" xmlns:sketch="http://www.bohemiancoding.com/sketch/ns">
    <!-- Generator: Sketch 3.1 (8751) - http://www.bohemiancoding.com/sketch -->
    <title>Fill 855 + Fill 856 + Fill 857</title>
    <desc>Created with Sketch.</desc>
    <defs></defs>
    <g id="Page-1" stroke="none" stroke-width="1" fill="none" fill-rule="evenodd" sketch:type="MSPage">
        <g id="Fill-855-+-Fill-856-+-Fill-857" sketch:type="MSLayerGroup" fill="#1B1A19">
            <path d="M71.3066667,17.5565532 C68.0946667,14.4829362 63.9213333,12.807617 59.472,12.7548511 C55.3906667,4.98638298 47.1813333,0 38.32,0 C26.2213333,0 16.1053333,9.00846809 14.6786667,20.7502128 C11.1893333,20.407234 7.70266667,21.4480426 4.94266667,23.6642128 C1.80133333,26.1851064 0,29.9314894 0,33.940383 C0,44.7442128 9.50933333,46.7229362 12.4226667,47.0791064 L12.5853333,47.0791064 C13.2493333,47.0791064 13.824,46.5923404 13.9066667,45.9182553 C13.9946667,45.1927234 13.4746667,44.5463404 12.7426667,44.454 C8.98,44.0054894 2.66666667,42.0399574 2.66666667,33.940383 C2.66666667,30.7348511 4.10933333,27.7271915 6.62533333,25.7088936 C9.148,23.6774043 12.4226667,22.8991064 15.608,23.56 L17.12,23.8620851 L17.2106667,22.3450638 C17.8706667,11.2905957 27.1426667,2.63697872 38.32,2.63697872 C46.4426667,2.63697872 53.9506667,7.36085106 57.4466667,14.641234 L57.8226667,15.4340426 L58.7,15.3944681 C62.74,15.261234 66.5626667,16.6859149 69.456,19.4561277 C72.368,22.2276596 73.972,25.9595319 73.972,29.9578723 C73.972,39.0204255 67.392,42.5544255 63.4693333,43.860383 C62.7706667,44.0978298 62.396,44.8378723 62.6306667,45.5357021 C62.8653333,46.2229787 63.6213333,46.5923404 64.32,46.366766 C68.92,44.8378723 76.6386667,40.6680426 76.6386667,29.9578723 C76.6386667,25.234 74.744,20.8280426 71.3066667,17.5565532" id="Fill-855" sketch:type="MSShapeGroup"></path>
            <path d="M48.1883333,54.5877021 C45.8736667,57.6468085 42.339,59.3880851 38.4936667,59.3880851 C31.8123333,59.3880851 26.3776667,54.0059574 26.3776667,47.3970213 L26.3776667,47.2664255 L29.1443333,49.9957447 C29.4043333,50.2608936 29.7456667,50.3914894 30.087,50.3914894 C30.4283333,50.3914894 30.7696667,50.2608936 31.0296667,49.9957447 C31.5496667,49.4812766 31.5496667,48.6515319 31.0296667,48.1357447 L25.9883333,43.1506809 C25.9883333,43.1506809 25.9856667,43.1506809 25.9843333,43.1361702 L25.0443333,42.212766 L24.103,43.1361702 L24.1003333,43.1506809 L19.0576667,48.1357447 C18.5363333,48.6515319 18.5363333,49.4812766 19.0576667,49.9957447 C19.5776667,50.5115319 20.4216667,50.5115319 20.943,49.9957447 L23.711,47.2664255 L23.711,47.3970213 C23.711,55.4702128 30.3416667,62.026383 38.4936667,62.026383 C43.1856667,62.026383 47.4976667,59.8893617 50.3203333,56.1825532 C50.763,55.5889362 50.6443333,54.7710638 50.055,54.3225532 C49.467,53.887234 48.631,54.0059574 48.1883333,54.5877021" id="Fill-856" sketch:type="MSShapeGroup"></path>
            <path d="M56.3085963,45.0093617 L53.5405963,47.7413191 L53.5405963,47.5948936 C53.5405963,39.5348936 46.9099297,32.9787234 38.759263,32.9787234 C34.067263,32.9787234 29.7565963,35.1025532 26.9339297,38.8225532 C26.491263,39.4029787 26.611263,40.2340426 27.199263,40.6693617 C27.787263,41.1046809 28.6245963,40.9859574 29.0659297,40.4055319 C31.3805963,37.359617 34.9125963,35.6183404 38.759263,35.6183404 C45.439263,35.6183404 50.8739297,40.9859574 50.8739297,47.5948936 L50.8739297,47.7413191 L48.107263,45.0093617 C47.5859297,44.4962128 46.7419297,44.4962128 46.2219297,45.0093617 C45.7005963,45.5238298 45.7005963,46.3548936 46.2219297,46.8706809 L51.2645963,51.8557447 L51.2659297,51.8557447 L52.207263,52.7923404 L53.1499297,51.8557447 L53.151263,51.8557447 L58.1939297,46.8706809 C58.715263,46.3548936 58.715263,45.5238298 58.1939297,45.0093617 C57.6739297,44.4962128 56.8299297,44.4962128 56.3085963,45.0093617" id="Fill-857" sketch:type="MSShapeGroup"></path>
        </g>
    </g>
</svg>

<svg width="77" height="63" viewBox="0 0 77 63" xmlns="http://www.w3.org/2000/svg">
    <desc>
        Created with Sketch.
    </desc>
    <g fill="#1B1A19">
        <path d="M71.307 17.557c-3.212-3.074-7.386-4.75-11.835-4.802C55.392 4.985 47.182 0 38.32 0c-12.1 0-22.215 9.008-23.64 20.75-3.49-.343-6.977.698-9.737 2.914C1.8 26.184 0 29.93 0 33.94c0 10.804 9.51 12.783 12.423 13.14h.162c.664 0 1.24-.488 1.322-1.162.088-.725-.432-1.372-1.164-1.464C8.98 44.004 2.667 42.04 2.667 33.94c0-3.205 1.442-6.213 3.958-8.23 2.523-2.033 5.798-2.81 8.983-2.15l1.512.302.09-1.517c.66-11.054 9.933-19.708 21.11-19.708 8.123 0 15.63 4.724 19.127 12.004l.376.794.877-.04c4.04-.133 7.863 1.292 10.756 4.062 2.912 2.772 4.516 6.504 4.516 10.502 0 9.062-6.58 12.596-10.503 13.902-.7.238-1.074.978-.84 1.676.235.687.99 1.056 1.69.83 4.6-1.528 12.32-5.698 12.32-16.408 0-4.724-1.896-9.13-5.333-12.4"/>
        <path d="M48.188 54.588c-2.314 3.06-5.85 4.8-9.694 4.8-6.682 0-12.116-5.382-12.116-11.99v-.132l2.766 2.73c.26.265.602.395.943.395.34 0 .683-.13.943-.394.52-.515.52-1.344 0-1.86l-5.042-4.985s-.002 0-.004-.014l-.94-.923-.94.923-.004.015-5.042 4.986c-.522.516-.522 1.345 0 1.86.52.516 1.364.516 1.885 0l2.768-2.73v.13c0 8.074 6.632 14.63 14.784 14.63 4.692 0 9.004-2.137 11.826-5.843.443-.594.324-1.412-.265-1.86-.588-.436-1.424-.317-1.867.265"/>
        <path d="M56.31 45.01l-2.77 2.73v-.145c0-8.06-6.63-14.616-14.78-14.616-4.693 0-9.003 2.123-11.826 5.843-.443.58-.323 1.41.265 1.846.587.435 1.425.316 1.866-.264 2.315-3.046 5.847-4.788 9.693-4.788 6.68 0 12.114 5.368 12.114 11.977v.146l-2.767-2.73c-.52-.514-1.365-.514-1.885 0s-.52 1.345 0 1.86l5.043 4.986.942.936.943-.936 5.044-4.985c.52-.515.52-1.346 0-1.86s-1.364-.514-1.885 0"/>
    </g>
</svg>
